flaticon/casino-gambling/aces.svg

<svg xmlns="http://www.w3.org/2000/svg" width="32" height="32" viewBox="0 0 24 24">
    <path d="M 22.5625 2.394531 L 16.574219 2.394531 L 16.050781 0.875 C 15.894531 0.238281 15.253906 -0.121094 14.613281 0.0390625 L 1.117188 3.113281 C 0.476562 3.3125 0.117188 3.953125 0.277344 4.589844 L 5.230469 23.121094 C 5.308594 23.441406 5.507812 23.679688 5.789062 23.839844 C 5.988281 23.960938 6.1875 24 6.386719 24 C 6.46875 24 6.585938 23.960938 6.707031 23.960938 L 7.800781 23.679688 C 8.007812 23.855469 8.28125 23.960938 8.585938 23.960938 L 22.5625 23.960938 C 23.242188 23.960938 23.761719 23.441406 23.761719 22.761719 L 23.761719 3.59375 C 23.761719 2.914062 23.242188 2.394531 22.5625 2.394531 Z M 6.507812 23.203125 C 6.386719 23.242188 6.269531 23.203125 6.1875 23.160156 C 6.066406 23.121094 6.027344 23.042969 5.988281 22.921875 L 1.035156 4.390625 C 0.996094 4.152344 1.117188 3.953125 1.316406 3.871094 L 14.8125 0.796875 C 14.855469 0.796875 14.894531 0.796875 14.933594 0.796875 C 15.09375 0.796875 15.253906 0.917969 15.375 1.117188 L 15.8125 2.394531 L 8.585938 2.394531 C 7.90625 2.394531 7.386719 2.914062 7.386719 3.59375 L 7.386719 22.761719 C 7.386719 22.832031 7.390625 22.902344 7.402344 22.96875 Z M 22.960938 22.761719 C 22.960938 23 22.800781 23.160156 22.5625 23.160156 L 8.585938 23.160156 C 8.46875 23.160156 8.371094 23.125 8.304688 23.058594 L 8.265625 23 C 8.226562 22.921875 8.183594 22.839844 8.183594 22.761719 L 8.183594 3.59375 C 8.183594 3.515625 8.199219 3.449219 8.230469 3.394531 C 8.292969 3.269531 8.417969 3.191406 8.585938 3.191406 L 22.5625 3.191406 C 22.800781 3.191406 22.960938 3.351562 22.960938 3.59375 Z M 22.960938 22.761719"/>
    <path d="M14.574219 4.789062L21.363281 4.789062 21.363281 16.332031C21.363281 16.570312 21.523438 16.730469 21.761719 16.730469 22.003906 16.730469 22.164062 16.570312 22.164062 16.332031L22.164062 4.390625C22.164062 4.152344 22.003906 3.992188 21.761719 3.992188L14.574219 3.992188C14.335938 3.992188 14.175781 4.152344 14.175781 4.390625 14.175781 4.628906 14.335938 4.789062 14.574219 4.789062zM17.371094 21.5625L9.78125 21.605469 9.78125 10.023438C9.78125 9.78125 9.621094 9.621094 9.382812 9.621094 9.144531 9.621094 8.984375 9.78125 8.984375 10.023438L8.984375 22.003906C8.984375 22.121094 9.023438 22.203125 9.105469 22.28125 9.183594 22.363281 9.261719 22.402344 9.382812 22.402344L17.371094 22.363281C17.609375 22.363281 17.769531 22.203125 17.769531 21.964844 17.769531 21.722656 17.609375 21.5625 17.371094 21.5625zM17.371094 21.5625"/>
    <path d="M19.847656 15.933594C20.367188 15.414062 20.605469 14.734375 20.566406 14.015625 20.527344 13.175781 20.046875 12.417969 19.246094 11.9375 18.847656 11.660156 18.488281 11.539062 18.089844 11.5 18.25 11.058594 18.289062 10.542969 18.167969 9.980469 17.96875 8.945312 17.171875 8.105469 16.132812 7.90625 15.332031 7.707031 14.535156 7.90625 13.894531 8.425781 13.257812 8.945312 12.898438 9.703125 12.898438 10.5 12.898438 10.859375 12.9375 11.21875 13.058594 11.5 12.65625 11.5 12.296875 11.660156 11.898438 11.898438 11.101562 12.417969 10.621094 13.175781 10.582031 13.976562 10.542969 14.65625 10.78125 15.375 11.300781 15.894531 11.820312 16.453125 12.539062 16.769531 13.296875 16.769531 13.496094 16.769531 13.65625 16.769531 13.855469 16.691406L13.578125 17.570312C13.496094 17.730469 13.535156 17.929688 13.617188 18.089844 13.695312 18.25 13.894531 18.367188 14.09375 18.367188L17.050781 18.367188C17.25 18.367188 17.410156 18.25 17.570312 18.128906 17.691406 17.96875 17.691406 17.769531 17.609375 17.609375L17.25 16.730469C17.449219 16.769531 17.648438 16.8125 17.851562 16.8125 18.570312 16.8125 19.328125 16.492188 19.847656 15.933594zM17.851562 15.972656C17.53125 15.972656 17.128906 15.851562 16.8125 15.652344 16.652344 15.574219 16.453125 15.574219 16.292969 15.691406L16.050781 15.894531 16.691406 17.570312 14.375 17.570312 14.933594 16.171875C14.972656 16.011719 14.933594 15.8125 14.773438 15.691406L14.496094 15.535156 14.253906 15.691406C13.9375 15.894531 13.617188 16.011719 13.335938 16.011719 12.777344 16.011719 12.257812 15.773438 11.898438 15.375 11.578125 14.972656 11.378906 14.496094 11.421875 14.015625 11.460938 13.457031 11.820312 12.9375 12.378906 12.578125 12.859375 12.296875 13.257812 12.21875 13.734375 12.339844L14.933594 12.617188 14.136719 11.699219C13.894531 11.417969 13.777344 11.019531 13.777344 10.5 13.777344 9.941406 14.015625 9.421875 14.457031 9.0625 14.894531 8.703125 15.453125 8.585938 16.011719 8.703125 16.691406 8.863281 17.289062 9.421875 17.410156 10.140625 17.492188 10.582031 17.492188 11.21875 17.089844 11.699219L16.292969 12.617188 17.492188 12.339844C17.929688 12.21875 18.289062 12.21875 18.847656 12.578125 19.445312 12.9375 19.765625 13.457031 19.808594 14.015625 19.808594 14.496094 19.648438 14.972656 19.289062 15.332031 18.886719 15.734375 18.367188 15.972656 17.851562 15.972656zM9.222656 7.90625C9.421875 8.023438 9.664062 7.945312 9.742188 7.746094L10.125 6.984375C10.140625 6.984375 10.160156 6.988281 10.183594 6.988281L11.777344 6.988281C11.800781 6.988281 11.820312 6.984375 11.835938 6.984375L12.21875 7.746094C12.296875 7.90625 12.417969 7.984375 12.578125 7.984375 12.65625 7.984375 12.699219 7.984375 12.816406 7.90625 12.976562 7.824219 13.058594 7.585938 12.976562 7.386719L11.378906 4.191406C11.261719 3.910156 10.78125 3.910156 10.660156 4.191406L9.0625 7.386719C8.945312 7.585938 9.023438 7.824219 9.222656 7.90625zM10.980469 5.269531L11.441406 6.1875 10.519531 6.1875zM21.964844 18.449219C21.761719 18.328125 21.523438 18.410156 21.445312 18.609375L21.058594 19.375C21.03125 19.371094 21 19.367188 20.964844 19.367188L19.367188 19.367188C19.339844 19.367188 19.316406 19.371094 19.289062 19.375L18.886719 18.570312C18.808594 18.410156 18.570312 18.328125 18.367188 18.410156 18.210938 18.488281 18.128906 18.726562 18.210938 18.929688L19.804688 22.121094C19.816406 22.140625 19.824219 22.15625 19.835938 22.171875 19.835938 22.175781 19.835938 22.175781 19.839844 22.179688 19.855469 22.207031 19.878906 22.234375 19.902344 22.257812 19.9375 22.292969 19.976562 22.316406 20.019531 22.335938 20.054688 22.363281 20.097656 22.363281 20.167969 22.363281 20.207031 22.363281 20.238281 22.363281 20.265625 22.351562 20.375 22.324219 20.464844 22.257812 20.527344 22.164062L22.125 18.96875C22.242188 18.769531 22.164062 18.527344 21.964844 18.449219zM20.175781 21.144531L19.6875 20.167969 20.664062 20.167969zM5.589844 15.175781C5.148438 13.496094 4.671875 11.820312 4.230469 10.183594 4.191406 9.980469 3.953125 9.863281 3.75 9.902344 3.550781 9.941406 3.433594 10.183594 3.472656 10.382812 3.910156 12.019531 4.351562 13.695312 4.789062 15.375 5.269531 17.089844 5.75 18.808594 6.1875 20.484375 6.269531 20.644531 6.425781 20.765625 6.585938 20.765625 6.628906 20.765625 6.667969 20.765625 6.707031 20.765625 6.90625 20.726562 7.027344 20.484375 6.988281 20.285156 6.507812 18.570312 6.066406 16.890625 5.589844 15.175781zM3.632812 7.984375L3.804688 7.148438C3.820312 7.148438 3.832031 7.148438 3.832031 7.148438L5.390625 6.746094C5.417969 6.742188 5.445312 6.730469 5.46875 6.71875L5.988281 7.304688C6.148438 7.464844 6.386719 7.507812 6.546875 7.347656 6.707031 7.1875 6.746094 6.945312 6.585938 6.789062L4.230469 4.113281C4.152344 3.992188 3.992188 3.953125 3.832031 3.992188 3.710938 4.03125 3.59375 4.152344 3.550781 4.3125L2.832031 7.824219C2.792969 8.066406 2.953125 8.265625 3.152344 8.304688 3.191406 8.304688 3.191406 8.304688 3.234375 8.304688 3.390625 8.304688 3.59375 8.183594 3.632812 7.984375zM4.894531 6.066406L3.980469 6.296875 4.191406 5.269531zM4.894531 6.066406"/>
</svg>

<svg xmlns="http://www.w3.org/2000/svg" width="32" height="32" viewBox="0 0 24 24">
    <path d="M22.563 2.395h-5.989l-.523-1.52c-.156-.637-.797-.996-1.438-.836L1.117 3.113c-.64.2-1 .84-.84 1.477L5.23 23.12c.079.32.278.559.56.719.198.12.397.16.597.16.082 0 .199-.04.32-.04l1.094-.28c.207.175.48.28.785.28h13.976c.68 0 1.2-.519 1.2-1.198V3.594c0-.68-.52-1.2-1.2-1.2zM6.508 23.203a.417.417 0 0 1-.32-.043c-.122-.039-.16-.117-.2-.238L1.035 4.39a.463.463 0 0 1 .281-.52L14.812.797h.122c.16 0 .32.121.441.32l.438 1.278H8.585c-.68 0-1.2.52-1.2 1.199v19.168c0 .07.005.14.016.207zm16.453-.441c0 .238-.16.398-.398.398H8.585a.388.388 0 0 1-.281-.101L8.265 23c-.038-.078-.081-.16-.081-.238V3.594c0-.078.015-.145.046-.2.063-.124.188-.203.356-.203h13.976c.239 0 .399.16.399.403zm0 0"/>
    <path d="M14.574 4.79h6.79v11.542c0 .238.16.398.398.398.242 0 .402-.16.402-.398V4.391c0-.239-.16-.399-.402-.399h-7.188c-.238 0-.398.16-.398.399 0 .238.16.398.398.398zm0 0M17.371 21.563l-7.59.042V10.023c0-.242-.16-.402-.398-.402-.238 0-.399.16-.399.402v11.98c0 .118.04.2.121.278a.348.348 0 0 0 .278.121l7.988-.039c.238 0 .399-.16.399-.398 0-.242-.16-.402-.399-.402zm0 0"/>
    <path d="M19.848 15.934c.52-.52.757-1.2.718-1.918-.039-.84-.52-1.598-1.32-2.079a2.322 2.322 0 0 0-1.156-.437c.16-.441.2-.957.078-1.52-.2-1.035-.996-1.875-2.035-2.074-.801-.199-1.598 0-2.238.52a2.673 2.673 0 0 0-.997 2.074c0 .36.04.719.16 1-.402 0-.761.16-1.16.398-.796.52-1.277 1.278-1.316 2.079-.039.68.2 1.398.719 1.918.52.558 1.238.875 1.996.875.2 0 .36 0 .558-.079l-.277.88c-.082.16-.043.359.04.519.077.16.277.277.476.277h2.957c.199 0 .36-.117.52-.238a.484.484 0 0 0 .038-.52l-.359-.879c.2.04.398.082.602.082.718 0 1.476-.32 1.996-.878zm-1.996.039a2.09 2.09 0 0 1-1.04-.32.5.5 0 0 0-.519.038l-.242.204.64 1.675h-2.316l.559-1.398c.039-.16 0-.36-.16-.48l-.278-.157-.242.156c-.316.204-.637.32-.918.32a1.935 1.935 0 0 1-1.438-.636c-.32-.402-.52-.879-.476-1.36.039-.558.398-1.078.957-1.437.48-.281.879-.36 1.355-.238l1.2.277-.797-.918c-.242-.281-.36-.68-.36-1.199 0-.559.239-1.078.68-1.438.438-.359.996-.476 1.555-.359.68.16 1.277.719 1.398 1.438.082.441.082 1.078-.32 1.558l-.797.918 1.2-.277c.437-.121.796-.121 1.355.238.597.36.918.879.96 1.438 0 .48-.16.957-.519 1.316-.402.402-.922.64-1.437.64zm0 0M9.223 7.906c.199.117.441.04.52-.16l.382-.762c.016 0 .035.004.059.004h1.593c.024 0 .043-.004.059-.004l.383.762c.078.16.199.238.36.238.077 0 .12 0 .237-.078.16-.082.243-.32.16-.52L11.38 4.192c-.117-.28-.598-.28-.719 0L9.062 7.387c-.117.199-.039.437.16.52zM10.98 5.27l.461.918h-.921zm0 0M21.965 18.45c-.203-.122-.442-.04-.52.16l-.386.765a.648.648 0 0 0-.094-.008h-1.598c-.027 0-.05.004-.078.008l-.402-.805c-.078-.16-.317-.242-.52-.16-.156.078-.238.317-.156.52l1.594 3.191.03.05c0 .005 0 .005.005.009a.392.392 0 0 0 .18.156c.035.027.078.027.148.027.039 0 .07 0 .098-.011a.44.44 0 0 0 .261-.188l1.598-3.195c.117-.2.04-.442-.16-.52zm-1.79 2.695l-.488-.977h.977zm0 0M5.59 15.176c-.442-1.68-.918-3.356-1.36-4.992-.039-.204-.277-.32-.48-.282-.2.04-.316.282-.277.48a810.93 810.93 0 0 1 1.316 4.993c.48 1.715.961 3.434 1.399 5.11.082.16.238.28.398.28h.121c.2-.038.32-.28.281-.48-.48-1.715-.922-3.394-1.398-5.11zm0 0M3.633 7.984l.172-.836h.027l1.559-.402a.265.265 0 0 0 .078-.027l.52.586c.16.16.398.203.558.043.16-.16.2-.403.039-.559L4.23 4.113c-.078-.12-.238-.16-.398-.12a.461.461 0 0 0-.281.32l-.719 3.511a.415.415 0 0 0 .32.48h.082c.157 0 .36-.12.399-.32zm1.262-1.918l-.915.23.211-1.026zm0 0"/>
</svg>
